**kern	**kern	**kern	**kern
*staff4	*staff3	*staff2	*staff1
*clefF4	*clefF4	*clefG2	*clefG2
*k[f#]	*k[f#]	*k[f#]	*k[f#]
*M2/4	*M2/4	*M2/4	*M2/4
=1-	=1-	=1-	=1-
8r	8r	8r	(8dd
=2	=2	=2	=2
8G	8d	8g 8b 8dd	8ggL
8r	8r	8r	8bbJ
8D	8d	8f# 8cc 8dd	8aaL
8r	8r	8r	8ff#J
=3	=3	=3	=3
8GG	8d	8g 8b 8dd	4.ddd)
8r	8r	8r	.
4r	4r	4r	.
.	.	.	(16.bbLL
.	.	.	32ggJJk)
=4	=4	=4	=4
8AA	8d	8f# 8a 8dd	8aaL
8r	8r	8r	(16.ff#L
.	.	.	32ddJJk)
8AA	8A	8g 8a 8cc#	8eeL
.	.	.	32ff#q
.	.	.	32eeq
.	.	.	32ddq
8r	8r	8r	(16.eeL
.	.	.	32ff#JJk)
=5	=5	=5	=5
8DD	8D	8f# 8a	4.dd
4r	4r	4r	.
*END	*END	*END	*END
*staff4	*staff3	*staff2	*staff1
*clefF4	*clefF4	*clefG2	*clefG2
*k[f#]	*k[f#]	*k[f#]	*k[f#]
*M2/4	*M2/4	*M2/4	*M2/4
.	.	.	32eeq
.	.	.	32ddq
.	.	.	32cc#q
8r	8r	8r	(16.ddLL
.	.	.	32eeJJk)
=6	=6	=6	=6
(8GG'L	(8d'L	(8g'L 8b'	(8ff'L
8GG'J	8d'J	8g'J 8b'	8ff'J
8GG'L	8d'L	8g'L 8b'	8ff'L
8GG'J)	8d'J)	8g'J) 8b'	8ff'J)
=7	=7	=7	=7
*	*	*^	*
(4C	4c	4cc	2g	(8.eeL
.	.	.	.	16ff#Jk
4BB	[4G	4dd	.	8ggL)
.	.	.	.	8ggJ
*	*	*v	*v	*
=8	=8	=8	=8
4C	8GL]	(4ee	4.aa
.	8gJ	.	.
4D)	32gLLL	8ddL	.
.	32f#	.	.
.	32g	.	.
.	32f#JJ	.	.
.	.	.	32bbq
.	.	.	32aaq
.	.	.	32ggq
.	32gLL	8ccJ	(16.aaLL
.	32f#	.	.
.	32e	.	.
.	32f#JJJ	.	32bbJJk
=9	=9	=9	=9
(8GGL	4g	4b)	4.gg)
16.BBL)	.	.	.
32D'JJk	.	.	.
8G'	8r	8r	.
*END	*END	*END	*END
*staff4	*staff3	*staff2	*staff1
*clefF4	*clefF4	*clefG2	*clefG2
*k[f#]	*k[f#]	*k[f#]	*k[f#]
*M2/4	*M2/4	*M2/4	*M2/4
8r	8r	8r	(8b
=10	=10	=10	=10
2r	4r	8e 8g 8b	8eeL
.	.	8r	8ggJ
.	8r	8B 8d# 8a	8ff#L
.	(8BB	8r	8dd#J)
=11	=11	=11	=11
4EE	8EL	(8gL	4.bb
.	8GJ	8eJ	.
4GG	8FL	8dL)	.
.	8DJ)	(8ffJ	8bb
=12	=12	=12	=12
4CC	4C	4.ee)	(16.cccLL
.	.	.	32bbk)
.	.	.	(16.ddd
.	.	.	32cccJJk)
8r	4r	.	8eeeL
8C#	.	8a	8eeJ
=13	=13	=13	=13
*^	*	*	*
4r	2D	8r	(4b	(4gg
.	.	8c#	.	.
8r	.	8d	8aL)	8ff#L)
(8F#	.	8r	([8ddJ	(8dddJ
=14	=14	=14	=14	=14
8GL	2D	4r	8ddL]	8eeL)
16.AL	.	.	16.ccL	8eeJ
32BJJk	.	.	32bJJk	.
8cL	.	8r	8aL	8r
8BJ)	.	([8e	8gJ)	(8eee
=15	=15	=15	=15	=15
4A	4D	8eL]	(8ccL	8ff#L)
.	.	16.dL	16.bL	8ff#J
.	.	32cJJk	32aJJk	.
8r	8r	8BL	8ddL	8r
*v	*v	*	*	*
*END	*END	*END	*END
*staff4	*staff3	*staff2	*staff1
*clefF4	*clefF4	*clefG2	*clefG2
*k[f#]	*k[f#]	*k[f#]	*k[f#]
*M2/4	*M2/4	*M2/4	*M2/4
8r	8AJ	8ccJ)	(8dd
=16	=16	=16	=16
8GG	4G)	8d 8g 8b	8ggL
8r	.	8r	8bbJ
8DD	8r	8d 8f# 8cc	8aaL
8r	(8D	8r	8ff#J
=17	=17	=17	=17
8GG	8GL	8d 8g 8b	4.ddd)
8r	8BJ	8r	.
8D	8AL	8d 8f# 8cc	.
8r	8F#J)	8r	(16.cccLL
.	.	.	32aaJJk)
=18	=18	=18	=18
(8BBL	4.d	8gL 8b	8ggL
16.GGL	.	8bJ 8dd	8ggJ
32BBJJk	.	.	.
8DL)	.	8bL 8dd	8ggL
.	.	.	32bbq
.	.	.	32aaq
.	.	.	32ggq
8DDJ	16f#LL	8ccJ 8dd	(16.aaL
.	32eL	.	.
.	32f#JJJ	.	32bbJJk
=19	=19	=19	=19
(8GGL	4g	4b 4dd	4gg)
16.BBL)	.	.	.
32D'JJk	.	.	.
8G'	8r	8r	8r
*END	*END	*END	*END
*staff4	*staff3	*staff2	*staff1
*clefF4	*clefF4	*clefG2	*clefG2
*k[f#]	*k[f#]	*k[f#]	*k[f#]
*M2/4	*M2/4	*M2/4	*M2/4
8r	8r	8r	(16bLL
.	.	.	16ggJJ
=20	=20	=20	=20
4G	4.d	(4g 4b	16ddLL
.	.	.	16bb
.	.	.	16gg
.	.	.	16dddJJ
4D	.	8f#L 8a	16bbLL
.	.	.	16ccc
.	8d	8aJ 8cc	16aa
.	.	.	16ff#JJ
=21	=21	=21	=21
4GG	4d	4g) 4b	16ggLL)
.	.	.	32aaq
.	.	.	(32ggL
.	.	.	32ff#J
.	.	.	16gg)
.	.	.	16aa'JJ
4r	4r	4r	(16bbLL
.	.	.	16ccc
.	.	.	16ddd
.	.	.	16bbJJ
=22	=22	=22	=22
*	*	*^	*
4.AA	4d	2a	4f#	16gg#LL
.	.	.	.	16aa
.	.	.	.	16ddd
.	.	.	.	16ff#JJ
.	4c#	.	4e	16aaLL
.	.	.	.	16gg#
8AA	.	.	.	16gg
.	.	.	.	16dd#JJ
*	*	*v	*v	*
=23	=23	=23	=23
8DL	(8.c#L	(4g [4a	16eeLL
.	.	.	16ff#
8AAJ	.	.	16gg
.	16eJk)	.	16cc#JJ
8DD	8d	8f#) 8a]	16eeLL
.	.	.	16dd
8r	8r	8r	16ccc#
.	.	.	16dddJJ
*END	*END	*END	*END
*staff4	*staff3	*staff2	*staff1
*clefF4	*clefG2	*clefG2	*clefG2
*k[f#]	*k[f#]	*k[f#]	*k[f#]
*M2/4	*M2/4	*M2/4	*M2/4
=24	=24	=24	=24
8GGL 8G	8dL 8f	8gL 8b	16cccLL
.	.	.	16bb
8GGJ 8G	8dJ 8f	8gJ 8b	16aa
.	.	.	16ggJJ
8GGL 8G	8dL 8f	8gL 8b	16ff#LL
.	.	.	16gg
8GGJ 8G	8dJ 8f	8gJ 8b	16aa
.	.	.	16bbJJ
=25	=25	=25	=25
(4GG 4G	(4c 4e	([4g 4cc	16cccLL)
.	.	.	32dddq
.	.	.	(32cccL
.	.	.	32bbJ
.	.	.	16ccc)
.	.	.	16eee'JJ
8GG)	8G) 8d	8g]) 8b	(16ccc#LL
.	.	.	16ddd
8r	8r	8r	16bb
.	.	.	16ggJJ
=26	=26	=26	=26
4C	4e	4g 4a	16eeLL)
.	.	.	32bbq
.	.	.	(32aaL
.	.	.	32gg#J
.	.	.	16aa)
.	.	.	16bb'JJ
8r	8r	8r	(16dddLL
.	.	.	16ccc#
8D	8d	8f# 8a	16ccc
.	.	.	16gg#JJ
=27	=27	=27	=27
*	*	*^	*
8GL	4d	(4cc	(8.f#L	16aaLL
.	.	.	.	16bb
8DJ	.	.	.	16ccc
.	.	.	16aJk)	16ff#JJ
8GG	8d	8b)	8g	16aaLL
*	*	*v	*v	*
.	.	.	16ggJJ)
*END	*END	*END	*END
*staff4	*staff3	*staff2	*staff1
*clefF4	*clefF4	*clefG2	*clefG2
*k[f#]	*k[f#]	*k[f#]	*k[f#]
*M2/4	*M2/4	*M2/4	*M2/4
*	*	*^	*
8r	8r	8r	8r	(16bLL
.	.	.	.	16ggJJ
=28	=28	=28	=28	=28
2r	4r	2b	4e 4g	16eeLL
.	.	.	.	16bb
.	.	.	.	16gg
.	.	.	.	16eeeJJ
*	*clefF4	*	*	*
.	8r	.	(8f#L 8a	16ddd#LL
.	.	.	.	16bb
.	(16BBLL	.	8d#J) 8f#	16aa
.	16F#JJ	.	.	16ff#JJ
=29	=29	=29	=29	=29
4EE	16ELL	8b	8e 8g	16ggLL)
.	.	.	.	32aaq
.	16B	.	.	(32ggL
.	.	.	.	32ff#J
.	16G	8r	8r	16gg)
.	16eJJ	.	.	16aa'JJ
4GG	16dLL	(8ffL	[4g	(16bbLL
.	16B	.	.	16ccc
.	16G	8bJ	.	16ddd
.	16FJJ	.	.	16ddd#JJ
=30	=30	=30	=30	=30
8CC	16ELL)	8cc)	8g]	16eeeLL
.	32F#q	.	.	.
.	32EL	.	.	16gg#
.	32DJ	.	.	.
8r	16E	8r	8r	16aa
.	16G#JJ	.	.	16bbJJ
8r	(8AL	8r	4r	16cccLL
.	.	.	.	16ee
8C#	8eJ)	(8a	.	16bb
.	.	.	.	16aaJJ
*	*	*v	*v	*
=31	=31	=31	=31
2D	4.d	8bL	16ggLL
.	.	.	16aa#
.	.	8cc#J	16bb
.	.	.	16ggJJ
.	.	8ddL)	16ff#LL
.	.	.	16ccc#
.	8r	8f#J 8a	16ddd
.	.	.	16ddJJ
=32	=32	=32	=32
*END	*END	*END	*END
*staff4	*staff3	*staff2	*staff1
*clefF4	*clefF4	*clefG2	*clefG2
*k[f#]	*k[f#]	*k[f#]	*k[f#]
*M2/4	*M2/4	*M2/4	*M2/4
=32	=32	=32	=32
2DD 2D	2G 2B 2e	2g 2b 2dd	16eeLL)
.	.	.	(16aa#
.	.	.	16bb
.	.	.	16cccJJ
.	.	.	16ccc#LL
.	.	.	16ddd
.	.	.	16ddd#
.	.	.	16eeeJJ
=33	=33	=33	=33
2DD 2D	2A 2c 2d 2f#	2a 2cc 2dd	16dddLL
.	.	.	16ccc#
.	.	.	16ccc
.	.	.	16bbJJ
.	.	.	16gg#LL
.	.	.	16aa
.	.	.	16ccc
.	.	.	16ff#JJ
=34	=34	=34	=34
4GG 4G	8B 8d 8g	8r	16ggLL)
.	.	.	(16b
.	8r	8b	16dd
.	.	.	16ggJJ
8DDL 8D	8r	(16gLL	16bbLL
.	.	16f#	16ccc
8CCJ 8C	8D	16cc	16aa
.	.	16aJJ)	16ff#JJ
=35	=35	=35	=35
4BBB 4BB	([4G 4d	([4g 4ff	16dddLL)
.	.	.	32eeeq
.	.	.	(32dddL
.	.	.	32ccc#J
.	.	.	16ddd)
.	.	.	16ddd#'JJ
4CC 4C	8G]) 8c	8g]) 8ee	(16eeeLL
.	.	.	16bb
.	8r	8r	16ccc
.	.	.	16aaJJ
*	*clefG2	*	*
=36	=36	=36	=36
4DD 4D	4d 4g	4b 4dd	16ggLL
.	.	.	16bb
.	.	.	16ddd)
.	.	.	16ddd'JJ
8r	8r	8r	(16dddLL
.	.	.	16ccc#
8D	8d 8f#	8a 8dd	16ccc
.	.	.	16gg#JJ
=37	=37	=37	=37
*	*^	*	*
8GL	(8.f#L	4.d	(4cc [4dd	16aaLL
.	.	.	.	16bb
8DJ	.	.	.	16ccc
.	16aJk	.	.	16ff#JJ
8GG	8g)	.	8b) 8dd]	16aaLL
.	.	.	.	16ggJJ)
*	*v	*v	*	*
*END	*END	*END	*END
*staff4	*staff3	*staff2	*staff1
*clefF4	*clefF4	*clefG2	*clefG2
*k[f#]	*k[f#]	*k[f#]	*k[f#]
*M2/4	*M2/4	*M2/4	*M2/4
8r	24dLL	8r	8r
.	24c#	.	.
.	24cJJ	.	.
=38	=38	=38	=38
4GG	24BLL	4b 4dd	4gg
.	24d	.	.
.	24cJ	.	.
.	24BL	.	.
.	24A	.	.
.	24GJJ	.	.
4DD	24F#LL	4cc 4dd	16aaLL
.	24c	.	.
.	.	.	32bbq
.	.	.	(32aaL
.	24BJ	.	.
.	.	.	32ggJ
.	24AL	.	16aa)
.	24G	.	.
.	.	.	16bbJJ
.	24F#JJ	.	.
=39	=39	=39	=39
4GG	24GLL	4b 4dd	4gg
.	24D	.	.
.	24GJ	.	.
.	24BL	.	.
.	24G	.	.
.	24BJJ	.	.
4r	24dLL	4r	4r
.	24c	.	.
.	24BJ	.	.
.	24AL	.	.
.	24B	.	.
.	24GJJ	.	.
=40	=40	=40	=40
.	.	.	(32dddq
2AAA 2AA	24F#LL	4f# 4a	4dd)
.	24A	.	.
.	24GJ	.	.
.	24F#L	.	.
.	24E	.	.
.	24DJJ	.	.
.	24C#LL	4g 4a	16eeLL
.	24G	.	.
.	.	.	32ff#q
.	.	.	(32eeL
.	24F#J	.	.
.	.	.	32ddJ
.	24EL	.	16ee)
.	24D	.	.
.	.	.	16ff#JJ
.	24C#JJ	.	.
=41	=41	=41	=41
4DD	24DLL	4f# 4a	4dd
.	24AA	.	.
.	24BBJ	.	.
.	24C#L	.	.
.	24D	.	.
.	24EJJ	.	.
4r	24F#LL	4r	4r
.	24G	.	.
.	24AJ	.	.
.	24BL	.	.
.	24c	.	.
.	24c#JJ	.	.
*END	*END	*END	*END
*staff4	*staff3	*staff2	*staff1
*clefF4	*clefF4	*clefG2	*clefG2
*k[f#]	*k[f#]	*k[f#]	*k[f#]
*M2/4	*M2/4	*M2/4	*M2/4
=42	=42	=42	=42
*	*	*^	*
2GGG 2GG	24dLL	(8bL	[2g	(8fffL
.	24c#	.	.	.
.	24dJ	.	.	.
.	24BL	8ddJ	.	8dddJ
.	24A#	.	.	.
.	24BJJ	.	.	.
.	24GLL	8ffL	.	8bbL
.	24F#	.	.	.
.	24GJ	.	.	.
.	24DL	8bJ	.	8ffJ
.	24C#	.	.	.
.	24DJJ	.	.	.
=43	=43	=43	=43	=43
8CC	24CLL	8ccL)	8g]	8eeL)
.	24E	.	.	.
.	24GJ	.	.	.
8r	24cL	8ggJ	8r	8cccJ 8eee
.	24e	.	.	.
.	24gJJ	.	.	.
8GG	24gLL	8gg	4r	8bb 8ddd
.	24d	.	.	.
.	24BJ	.	.	.
8r	24dL	8r	.	8r
.	24B	.	.	.
.	24GJJ	.	.	.
*	*	*v	*v	*
=44	=44	=44	=44
2DD	24F#LL	4r	(4.d
.	24A	.	.
.	24cJ	.	.
.	24BL	.	.
.	24A	.	.
.	24GJJ	.	.
.	24F#LL	(4c	.
.	24E	.	.
.	24DJ	.	.
.	24CL	.	16.eLL
.	24BB	.	.
.	24AAJJ	.	.
.	.	.	32f#JJk
=45	=45	=45	=45
8GGG	24GGLL	8B)	8g)
.	24BB	.	.
.	24CJ	.	.
8r	24DL	8r	8r
.	24E	.	.
.	24F#JJ	.	.
8r	24GLL	8r	8r
.	24A	.	.
.	24A#JJ	.	.
*END	*END	*END	*END
*staff4	*staff3	*staff2	*staff1
*clefF4	*clefF4	*clefG2	*clefG2
*k[f#]	*k[f#]	*k[f#]	*k[f#]
*M2/4	*M2/4	*M2/4	*M2/4
8r	24BLL	8r	8r
.	24A#	.	.
.	24AJJ	.	.
=46	=46	=46	=46
4EE	24GLL	4g 4b	4ee
.	24B	.	.
.	24AJ	.	.
.	24GL	.	.
.	24F#	.	.
.	24EJJ	.	.
4BB	24D#LL	4a 4b	16ff#LL
.	24A	.	.
.	.	.	32ggq
.	.	.	(32ff#L
.	24GJ	.	.
.	.	.	32eeJ
.	24F#L	.	16ff#)
.	24E	.	.
.	.	.	16ggJJ
.	24D#JJ	.	.
=47	=47	=47	=47
8EE	24ELL	8g 8b	8ee
.	24B	.	.
.	24AJ	.	.
8r	24GL	8r	8r
.	24F#	.	.
.	24EJJ	.	.
*	*	*^	*
4GGG 4GG	24DLL	4b	4g	16ffLL
.	24d	.	.	.
.	.	.	.	32ggq
.	.	.	.	(32ffL
.	24cJ	.	.	.
.	.	.	.	32eeJ
.	24BL	.	.	16ff)
.	24A	.	.	.
.	.	.	.	16ggJJ
.	24GJJ	.	.	.
=48	=48	=48	=48	=48
8CL	24GLL	8cc	8gL	8eeL
.	24c	.	.	.
.	24EJ	.	.	.
8AAJ	24cL	4dd	(8ccJ	8ff#J
.	24d	.	.	.
.	24DJJ	.	.	.
8BBL	24BLL	.	8bL	16ggLL
.	24d	.	.	.
.	.	.	.	32aaq
.	.	.	.	(32ggL
.	24DJ	.	.	.
.	.	.	.	32ff#J
8C#J	24AL	8ee	8aJ)	16gg)
.	24e	.	.	.
.	.	.	.	16aaJJ
.	24EJJ	.	.	.
*	*	*v	*v	*
=49	=49	=49	=49
2D	24GLL	(4b [4dd	(4gg
.	24A	.	.
.	24B-J	.	.
.	24BL	.	.
.	24c	.	.
.	24c#JJ	.	.
.	24dLL	8a) 8dd]	8ff#L)
.	24c#	.	.
.	24cJ	.	.
.	24BL	8r	(8dddJ
.	24B-	.	.
.	24AJJ	.	.
=50	=50	=50	=50
2DD	24G#LL	8r	4.ee)
.	24F	.	.
.	24EJ	.	.
.	24DL	(8g# 8dd	.
.	24C	.	.
.	24BBJJ	.	.
.	24AALL	8a) 8cc	.
.	24C	.	.
.	24EJ	.	.
.	24G#L	8r	(8eee
.	24A	.	.
.	24cJJ	.	.
=51	=51	=51	=51
4.DD 4.D	24e-LL	8r	[4ff#)
.	24d	.	.
.	24cJ	.	.
.	24B-L	([8cc 8ee-	.
.	24A	.	.
.	24GJJ	.	.
.	24F#LL	8cc]) 8dd	(16.ff#LL]
.	24E	.	.
.	24DJ	.	.
.	.	.	32aak
8r	24CL	8r	16.ccc
.	24BB	.	.
.	24AAJJ	.	.
.	.	.	32ff#JJk
*END	*END	*END	*END
*staff4	*staff3	*staff2	*staff1
*clefF4	*clefF4	*clefG2	*clefG2
*k[f#]	*k[f#]	*k[f#]	*k[f#]
*M2/4	*M2/4	*M2/4	*M2/4
=52	=52	=52	=52
(4BBB	24GGLL	4.d 4.dd	4gg)
.	24BB	.	.
.	24DJ	.	.
.	24GL	.	.
.	24B	.	.
.	24GJJ	.	.
4CC)	24F#LL	.	16aaLL
.	24A	.	.
.	.	.	32bbq
.	.	.	(32aaL
.	24F#J	.	.
.	.	.	32gg#J
.	24DL	8r	16aa)
.	24E	.	.
.	.	.	16ddJJ
.	24F#JJ	.	.
=53	=53	=53	=53
8BBB	24GLL	8r	([4ddd
.	24f	.	.
.	24dJ	.	.
8r	24BL	(8g	.
.	24G	.	.
.	24FJJ	.	.
8CC	24ELL	8gg)	16dddLL]
.	24G#	.	.
.	.	.	16eee
.	24AJ	.	.
8r	24cL	8r	16ccc
.	24e	.	.
.	.	.	16aaJJ
.	24cJJ	.	.
=54	=54	=54	=54
2DD	24BLL	4b 4dd	4gg)
.	24d	.	.
.	24cJ	.	.
.	24BL	.	.
.	24A	.	.
.	24GJJ	.	.
.	24F#LL	4cc 4dd	16aaLL
.	24c	.	.
.	.	.	32bbq
.	.	.	(32aaL
.	24BJ	.	.
.	.	.	32ggJ
.	24AL	.	16aa)
.	24G	.	.
.	.	.	16bbJJ
.	24F#JJ	.	.
=55	=55	=55	=55
4GGG	24GLL	4b 4dd	4gg
.	24d	.	.
.	24BJ	.	.
.	24GL	.	.
.	24D	.	.
.	24BBJJ	.	.
32r	32GG	32r	32r
*END	*END	*END	*END
*staff4	*staff3	*staff2	*staff1
*clefF4	*clefF4	*clefG2	*clefG2
*k[f#]	*k[f#]	*k[f#]	*k[f#]
*M2/4	*M2/4	*M2/4	*M2/4
32r	32r	32ddLLL	32r
16r	16r	32cc#	16r
.	.	32ddJJ	.
8r	8r	32ccLL	16r
.	.	32dd	.
.	.	32a	16ff#
.	.	32ddJJJ	.
=56	=56	=56	=56
2r	4r	32bLLL	(16dddLL
.	.	32dd	.
.	.	32a#	16ccc#)
.	.	32ddJJ	.
.	.	32bLL	16ddd
.	.	32dd	.
.	.	32g#	16bbJJ
.	.	32ddJJJ	.
.	.	.	32dddq
.	8r	32aLLL	(16cccLL
.	.	32dd	.
.	.	32g#	16bb)
.	.	32ddJJ	.
.	16r	32aLL	16ccc
.	.	32dd	.
.	16D	32f#	16aaJJ
.	.	32ddJJJ	.
=57	=57	=57	=57
2DD 2D	(16BLL	32gLLL	4bb
.	.	32dd	.
.	16A#)	32f#	.
.	.	32ddJJ	.
.	16B	32gLL	.
.	.	32dd	.
.	16GJJ	32e	.
.	.	32ddJJJ	.
.	32Bq	.	.
.	(16ALL	32f#LLL	8r
.	.	32dd	.
.	16G#)	32e	.
.	.	32ddJJ	.
.	16A	32f#LL	16r
.	.	32dd	.
.	16F#JJ	32d	16aa
.	.	32ddJJJ	.
=58	=58	=58	=58
4.AAA 4.AA	8GL	32eLLL	(16ggLL
.	.	32dd	.
.	.	32d#	16ff#)
.	.	32ddJJ	.
.	8EJ	32eLL	16gg
.	.	32dd	.
.	.	32d#	16ff#JJ
.	.	32ddJJJ	.
.	[4A	32eLLL	(16ggLL
.	.	32cc#	.
.	.	32g	16bb)
.	.	32cc#JJ	.
16r	.	32f#LL	16aa
.	.	32cc#	.
16AA	.	32e	16ggJJ
.	.	32cc#JJJ	.
=59	=59	=59	=59
(16DLL	8A]	32dLLL	4ff#
.	.	32dd	.
16C#)	.	32e	.
.	.	32ddJJ	.
16D	8r	32f#LL	.
.	.	32dd	.
16BBJJ	.	32g	.
.	.	32ddJJJ	.
32Dq	.	.	.
(16CLL	8.r	32aLLL	8r
.	.	32dd	.
16BB)	.	32g#	.
.	.	32ddJJ	.
16C	.	32aLL	16r
.	.	32dd	.
*END	*END	*END	*END
*staff4	*staff3	*staff2	*staff1
*clefF4	*clefG2	*clefG2	*clefG2
*k[f#]	*k[f#]	*k[f#]	*k[f#]
*M2/4	*M2/4	*M2/4	*M2/4
16AAJJ	16r	32cc	16ff#
.	.	32ddJJJ	.
=60	=60	=60	=60
4.GG	8r	32ffLLL	(16dddLL
.	.	32gg	.
.	.	32ee	16ccc#)
.	.	32ggJJ	.
.	8G	32ffLL	16ddd
.	.	32gg	.
.	.	32ee	16ccc#JJ
.	.	32ggJJJ	.
.	.	.	32eeeq
.	[4g	32ffLLL	(16dddLL
.	.	32gg	.
.	.	32ee	16ccc#)
.	.	32ggJJ	.
8G	.	32ffLL	16ddd
.	.	32gg	.
.	.	32dd	16bbJJ
.	.	32ggJJJ	.
=61	=61	=61	=61
.	.	.	32dddq
4.GG	8gL]	32eeLLL	(16cccLL
.	.	32gg	.
.	.	32dd#	16bb)
.	.	32ggJJ	.
.	8GJ	32eeLL	16ccc
.	.	32gg	.
.	.	32cc#	16aa#JJ
.	.	32ggJJJ	.
.	.	.	32cccq
.	4g	32ddLLL	(16bbLL
.	.	32gg	.
.	.	32cc#	16aa#)
.	.	32ggJJ	.
8G	.	32ddLL	16bb
.	.	32gg	.
.	.	32b	16ggJJ
.	.	32ddJJJ	.
=62	=62	=62	=62
.	.	.	32bbq
16D'LL	16f#'LL	32ccLLL	16aa'LL
.	.	32dd	.
16G'	16g'	32b	16gg'
.	.	32ddJJ	.
.	.	.	32bbq
16D'	16f#'	32ccLL	16aa'
.	.	32dd	.
16G'JJ	16g'JJ	32b	16gg'JJ
.	.	32ddJJJ	.
.	.	.	32bbq
16D'LL	16f#'LL	32ccLLL	16aa'LL
.	.	32dd	.
16G'	16g'	32b	16gg'
.	.	32ddJJ	.
.	.	.	32bbq
16D'	16f#'	32ccLL	16aa'
.	.	32dd	.
16DD'JJ	16c'JJ	32a	16ff#'JJ
.	.	32ddJJJ	.
=63	=63	=63	=63
16GG'LL	16BLL	32gLLL	16gg'LL
.	.	32b	.
16G'	16B' 16d'	32dd	16bb'
.	.	32bJJ	.
16BB'	16B' 16d'	32gLL	16gg'
.	.	32b	.
16D'JJ	16B'JJ 16d'	32dd	16bb'JJ
.	.	32b	.
32GG'	32B' 32d'	32gJJJ	32gg'
*END	*END	*END	*END
*staff4	*staff3	*staff2	*staff1
*clefF4	*clefF4	*clefG2	*clefG2
*k[f#]	*k[f#]	*k[f#]	*k[f#]
*M2/4	*M2/4	*M2/4	*M2/4
32r	32r	32bLLL	32r
16r	16r	32a#	16r
.	.	32bJJ	.
8r	8r	32aLL	8r
.	.	32b	.
.	.	32f#	.
.	.	32bJJJ	.
=64	=64	=64	=64
2r	4r	32gLLL	(16bbLL
.	.	32b	.
.	.	32f#	16aa#)
.	.	32bJJ	.
.	.	32gLL	16bb
.	.	32b	.
.	.	32e#	16gg#JJ
.	.	32bJJJ	.
*	*clefF4	*	*
.	.	.	32bbq
.	8r	32f#LLL	(16aa#LL
.	.	32b	.
.	.	32e#	16gg#)
.	.	32bJJ	.
.	16r	32f#LL	16aa#
.	.	32b	.
.	16BB	32d#	16ff#JJ
.	.	32bJJJ	.
=65	=65	=65	=65
2GGG 2GG	(16GLL	32eLLL	4gg
.	.	32g	.
.	16F#)	32d#	.
.	.	32gJJ	.
.	16G	32eLL	.
.	.	32g	.
.	16EJJ	32c#	.
.	.	32gJJJ	.
.	32Gq	.	.
.	(16FLL	32dLLL	8r
.	.	32g	.
.	16E)	32c#	.
.	.	32gJJ	.
.	16F	32dLL	16r
.	.	32g	.
.	16DJJ	32B	16fff'
.	.	32gJJJ	.
=66	=66	=66	=66
16CC'LL	16C'LL	32cLLL	16eee'LL
.	.	32g	.
16GG'	16D'	32B	16fff'
.	.	32gJJ	.
16CC'	16C'	32cLL	16eee'
.	.	32g	.
16GG'JJ	16D'JJ	32B	16fff'JJ
.	.	32gJJJ	.
8CC	8C	32cLLL	16eee'LL
.	.	32g	.
.	.	32B	16ddd#'
.	.	32gJJ	.
8r	16r	32cLL	16eee'
.	.	32g	.
.	16A	32e	16ccc'JJ
.	.	32aJJJ	.
=67	=67	=67	=67
2r	(16dLL	32f#LLL	4aa
.	.	32a	.
.	16c#)	32g	.
.	.	32aJJ	.
.	16d	32f#LL	.
.	.	32a	.
.	16c#JJ	32g	.
.	.	32aJJJ	.
.	32eq	.	.
.	(16dLL	32f#LLL	8r
.	.	32a	.
.	16c#)	32g	.
.	.	32aJJ	.
.	16d	32f#LL	16r
.	.	32a	.
.	16dJJ	32f#	16ddd
.	.	32aJJJ	.
=68	=68	=68	=68
4r	2D	32gLLL	(16eeLL
.	.	32b	.
.	.	32f#	16dd#)
.	.	32aJJ	.
.	.	32gLL	16ee
.	.	32b	.
.	.	32f#	16dd#JJ
.	.	32aJJJ	.
.	.	.	32ff#q
8r	.	32gLLL	(16eeLL
.	.	32b	.
.	.	32f#	16dd#)
.	.	32aJJ	.
16r	.	32gLL	16ee
.	.	32b	.
16DD	.	32g	16eeJJ
.	.	32bJJJ	.
=69	=69	=69	=69
.	32Dq	.	.
(16CLL	4.d	32aLLL	4.ff#
.	.	32dd	.
16BB)	.	32g#	.
.	.	32ddJJ	.
16C	.	32aLL	.
.	.	32dd	.
16BBJJ	.	32g#	.
.	.	32ddJJJ	.
32Dq	.	.	.
(16CLL	.	32aLLL	.
.	.	32dd	.
16BB)	.	32g#	.
.	.	32ddJJ	.
16C	16r	32aLL	16r
.	.	32dd	.
16AAJJ	(16F#	32cc	16aa
.	.	32ddJJJ	.
*END	*END	*END	*END
*staff4	*staff3	*staff2	*staff1
*clefF4	*clefF4	*clefG2	*clefG2
*k[f#]	*k[f#]	*k[f#]	*k[f#]
*M2/4	*M2/4	*M2/4	*M2/4
=70	=70	=70	=70
8GG	8G)	32bLLL	(16dddLL
.	.	32dd	.
.	.	32a#	16ccc#)
.	.	32ddJJ	.
8r	8r	32bLL	16ddd
.	.	32dd	.
.	.	32g#	16bbJJ
.	.	32ddJJJ	.
.	.	.	32dddq
8DD	8r	32aLLL	(16cccLL
.	.	32dd	.
.	.	32g#	16bb)
.	.	32ddJJ	.
8r	16GLL	32aLL	16ccc
.	.	32dd	.
.	16DJJ	32f#	16aaJJ
.	.	32ddJJJ	.
=71	=71	=71	=71
8GG	(16dLL	32gLLL	(16bbLL
.	.	32b	.
.	16c#)	32dd	16aa#)
.	.	32cc#JJ	.
8r	16d	32ddLL	16bb
.	.	32cc#	.
.	16BJJ	32dd	16gg#JJ
.	.	32cc#JJJ	.
.	32dq	.	32bbq
8D	(16cLL	32ddLLL	(16aaLL
.	.	32cc#	.
.	16B)	32dd	16gg#)
.	.	32cc#JJ	.
16r	16c	32ddLL	16aa
.	.	32cc#	.
16DD	16AJJ	32dd	16ff#JJ
.	.	32ccJJJ	.
*	*clefG2	*	*
=72	=72	=72	=72
16GG'LL	16G'LL	32bLLL	16gg'LL
.	.	32dd	.
.	.	.	32bbq
16D'	16f#'	32cc	16aa'
.	.	32ddJJ	.
16G'	16g'	32bLL	16gg'
.	.	32dd	.
.	.	.	32bbq
16D'JJ	16f#'JJ	32cc	16aa'JJ
.	.	32ddJJJ	.
16G'LL	16g'LL	32bLLL	16gg'LL
.	.	32dd	.
.	.	.	32bbq
16D'	16f#'	32cc	16aa'
.	.	32ddJJ	.
16G'	16g'	32bLL	16gg'
.	.	32dd	.
.	.	.	32bbq
16D'JJ	16f#'JJ	32cc	16aa'JJ
.	.	32ddJJJ	.
=73	=73	=73	=73
16GG'LL	16g'LL	32bLLL	16gg'LL
.	.	32g	.
16G'	16B' 16d'	32b	16bb'
.	.	32ddJJ	.
16BB'	16B' 16d'	32bLL	16ddd'
.	.	32g	.
16D'JJ	16B'JJ 16d'	32b	16bb'JJ
.	.	32ddJJJ	.
8GG'	8B' 8d'	8b	8gg
*END	*END	*END	*END
*staff4	*staff3	*staff2	*staff1
*clefF4	*clefG2	*clefG2	*clefG2
*k[b-e-]	*k[b-e-]	*k[b-e-]	*k[b-e-]
*M2/4	*M2/4	*M2/4	*M2/4
8r	8r	8r	(8dd
=74	=74	=74	=74
*	*	*^	*
2r	2r	4r	4r	8bb-L
.	.	.	.	8aaJ
.	.	8r	8r	8aa-L
.	.	8ee-	[8cc	8ff#J)
=75	=75	=75	=75	=75
2r	4r	4.dd	(8ccL]	(8.ggL
.	.	.	16.b-L	.
.	.	.	.	16aaJk
.	.	.	32aJJk	.
.	8r	.	8g)	8bb-)
.	(8A	8r	8r	8r
=76	=76	=76	=76	=76
4r	8fL	4r	2r	2r
.	8eJ	.	.	.
8r	8e-L	8r	.	.
[8G	8c#J)	8B-	.	.
=77	=77	=77	=77	=77
(8GL]	(8.dL	4.A	4r	4r
16.FL	.	.	.	.
.	16eJk	.	.	.
32EJJk	.	.	.	.
8D)	8f)	.	8r	8r
*	*v	*v	*	*
*END	*END	*END	*END
*staff4	*staff3	*staff2	*staff1
*clefF4	*clefG2	*clefG2	*clefG2
*k[b-e-]	*k[b-e-]	*k[b-e-]	*k[b-e-]
*M2/4	*M2/4	*M2/4	*M2/4
8BBB 8BB	8d	(8g	(8gg
=78	=78	=78	=78
(8CCL 8C	(8GL	8ee-L	8eee-L
8FFJ 8F	8A-J	8ddJ	8dddJ
8AA-L 8A-	8fL	8dd-L	8ddd-L
8GGJ) 8G	8dJ)	8bJ)	8bbJ)
=79	=79	=79	=79
(8.EE-L 8.E-	(8.gL	(8.ccL	(8.cccL
16DDJk 16D	16BJk	16ddJk	16dddJk
8CC) 8C	8c)	8ee-L)	8eee-L)
8r	8r	8e-J 8cc	8ggJ
=80	=80	=80	=80
4r	4r	4.d 4.cc	(8.ff#L
.	.	.	16ggJk
8r	8r	.	8aa)
*	*clefF4	*	*
8DD 8C	8F#	8r	8r
=81	=81	=81	=81
4GG 4BB-	(8.GL	4.r	4.r
.	16AJk	.	.
8r	8B-)	.	.
*END	*END	*END	*END
*staff4	*staff3	*staff2	*staff1
*clefF4	*clefG2	*clefG2	*clefG2
*k[b-e-]	*k[b-e-]	*k[b-e-]	*k[b-e-]
*M2/4	*M2/4	*M2/4	*M2/4
8r	8r	8r	(8b-
=82	=82	=82	=82
8r	4r	8r	8bb-L
(8GG-	.	(8cc	8aaJ
8FFL	8r	8dd-L	8aa-L
8BB-J)	8B-	8ddJ	8ff#J
=83	=83	=83	=83
8r	8gL	8ee-L)	4gg)
(8EE-	8g-J	(8aJ	.
8DDL	8fL	8b-L	8r
8GGJ	8dJ	8bJ	(8gg
=84	=84	=84	=84
2CC) 2C	8cL	8ccL	8eee-L
.	8BJ	8ddJ	8ggJ
.	8cL	8ee-L	8aa-L
.	8e-J	8a-J	8cccJ
=85	=85	=85	=85
4.DD 4.D	8dL	8b-L	4gg
.	8b-J	8cc#J	.
.	8aL	8ddL)	8ff#L)
8d	8f#J	8aJ	8ddJ
=86	=86	=86	=86
(4c	(4g	(4cc	(4ee-
8dL)	8f#L)	8aL)	8ddL)
8dJ	8f#J	8aJ	8ddJ
=87	=87	=87	=87
(4c	(4g	(4cc	(8ffL
.	.	.	8ee-J
8d)	8f#)	8a)	8dd)
*END	*END	*END	*END
*staff4	*staff3	*staff2	*staff1
*clefF4	*clefG2	*clefG2	*clefG2
*k[b-e-]	*k[b-e-]	*k[b-e-]	*k[b-e-]
*M2/4	*M2/4	*M2/4	*M2/4
8r	8r	8r	(8dd
=88	=88	=88	=88
*	*	*^	*
4r	4r	8r	4r	8bb-L
.	.	8c 8e-	.	8aaJ
8r	8r	8ee-L	4cc	8aa-L
8DD	8a	[8ddJ	.	8ff#J)
=89	=89	=89	=89	=89
8FL	4.g	8ddL]	8bL	(8.ggL
8EJ	.	8ccJ	8ccJ	.
.	.	.	.	16aaJk
8E-L	.	8r	4r	8bb-L)
8C#J	(16.b-LL	8ee 8gg	.	8bb-J
.	32gJJk	.	.	.
*	*	*v	*v	*
=90	=90	=90	=90
4D	4d)	8ddL 8gg	(8.bb-L
.	.	8b-J 8dd	.
.	.	.	16cccJk
8r	8r	8gL 8b-	8dddL)
8D	8c	8f#J 8a	8dddJ
=91	=91	=91	=91
8GL	8B-	8g	8gg
8DJ	8r	8r	8r
8GG	8r	8r	8r
*END	*END	*END	*END
*staff4	*staff3	*staff2	*staff1
*clefF4	*clefF4	*clefG2	*clefG2
*k[f#]	*k[f#]	*k[f#]	*k[f#]
*M2/4	*M2/4	*M2/4	*M2/4
8r	8r	8r	8d
=92	=92	=92	=92
24GGLL	8D 8G 8B	8d 8g 8b	8dd 8gg 8bb 8ddd
24BB	.	.	.
24AAJ	.	.	.
24BBL	8r	8r	8r
24AA	.	.	.
24GGJJ	.	.	.
24AALL	8D 8F# 8A 8c	8d 8f# 8a	8cc 8dd 8ff#
24C	.	.	.
24BBJ	.	.	.
24CL	8r	8r	8r
24BB	.	.	.
24AAJJ	.	.	.
=93	=93	=93	=93
24BBLL	4D 4G 4B	4d 4g	4b 4dd 4gg
24D	.	.	.
24CJ	.	.	.
24BBL	.	.	.
24C	.	.	.
24AAJJ	.	.	.
24GGLL	8r	8r	8r
24D	.	.	.
24CJ	.	.	.
24BBL	8D 8G 8B	8d 8g 8b	8dd 8gg 8bb
24AA	.	.	.
24GGJJ	.	.	.
=94	=94	=94	=94
24DDLL	8D 8F# 8A 8d	8f# 8a 8dd	8ff# 8aa 8ddd
24FF#	.	.	.
24EEJ	.	.	.
24FF#L	8r	8r	8r
24EE	.	.	.
24DDJJ	.	.	.
24EELL	8E 8G 8A 8c#	8e 8g 8a 8cc#	8ee 8gg 8aa 8ccc#
24GG	.	.	.
24FF#J	.	.	.
24GGL	8r	8r	8r
24FF#	.	.	.
24EEJJ	.	.	.
=95	=95	=95	=95
24FF#LL	4D 4F# 4A 4d	4f# 4a 4dd	4ff# 4aa 4ddd
24AA	.	.	.
24GGJ	.	.	.
24FF#L	.	.	.
24GG	.	.	.
24EEJJ	.	.	.
24DDLL	4r	4r	4r
24FF#	.	.	.
24AAJ	.	.	.
24C#L	.	.	.
24D	.	.	.
24EJJ	.	.	.
*END	*END	*END	*END
*staff4	*staff3	*staff2	*staff1
*clefF4	*clefF4	*clefG2	*clefG2
*k[f#]	*k[f#]	*k[f#]	*k[f#]
*M2/4	*M2/4	*M2/4	*M2/4
=96	=96	=96	=96
24FLL	8GL 8B 8d	8gL 8b 8dd	8ggL 8bb
24E	.	.	.
24DJ	.	.	.
24CL	16.GL 16.B 16.d	16.gL 16.b 16.dd	16.ggL 16.bb
24BB	.	.	.
24AAJJ	.	.	.
.	32GJJk 32B 32d	32gJJk 32b 32dd	32ggJJk 32bb
24GGLL	8GL 8B 8d	8gL 8b 8dd	8ggL 8bb
24AA	.	.	.
24GGJ	.	.	.
24FFL	8FJ 8G 8B 8d	8gJ 8b 8dd	8ggJ 8bb
24GG	.	.	.
24FFJJ	.	.	.
=97	=97	=97	=97
24EELL	(8EL 8G 8d	(8gL 8dd	(8ggL 8ddd
24DD	.	.	.
24EEJ	.	.	.
24FF#L	8F#J 8A 8c	8aJ 8cc	8aaJ 8ccc
24EE	.	.	.
24FF#JJ	.	.	.
24GGLL	8GL) 8B	8gL) 8b	8ggL) 8bb
24FF#	.	.	.
24GGJ	.	.	.
24EEL	8EJ 8G 8B	8eJ 8g	8bJ 8ee 8gg
24DD	.	.	.
24EEJJ	.	.	.
=98	=98	=98	=98
24CCLL	8E 8A 8c	8e 8g 8a	8cc 8ee 8aa
24EE	.	.	.
24AAJ	.	.	.
24CL	8r	8r	8r
24BB	.	.	.
24CJJ	.	.	.
24DDLL	8D 8F# 8A 8c	8d 8f# 8a 8cc	8dd 8ff# 8aa 8ddd
24FF#	.	.	.
24AAJ	.	.	.
24DL	8r	8r	8r
24C#	.	.	.
24DJJ	.	.	.
=99	=99	=99	=99
24GGGLL	4BB 4D 4G	4B 4d 4g	4b 4dd 4gg
24BBB	.	.	.
24DDJ	.	.	.
24GGL	.	.	.
24DD	.	.	.
24BBBJJ	.	.	.
8GGG	8r	8r	32r
.	.	.	32ddLLL
.	.	.	32ee
.	.	.	32ff#JJ
*END	*END	*END	*END
*staff4	*staff3	*staff2	*staff1
*clefF4	*clefF4	*clefG2	*clefG2
*k[f#]	*k[f#]	*k[f#]	*k[f#]
*M2/4	*M2/4	*M2/4	*M2/4
8r	8r	8r	32ggLL
.	.	.	32aa
.	.	.	32bb
.	.	.	32cccJJJ
=100	=100	=100	=100
4G	4d	(4g 4b	32ccc#LLL
.	.	.	32ddd
.	.	.	32eee
.	.	.	32dddJJ
.	.	.	32cccLL
.	.	.	32bb
.	.	.	32aa
.	.	.	32ggJJJ
4D	4d	8f#L 8a	32dddLLL
.	.	.	32ccc
.	.	.	32bb
.	.	.	32cccJJ
.	.	8aJ) 8cc	32bbLL
.	.	.	32aa
.	.	.	32gg
.	.	.	32ff#JJJ
=101	=101	=101	=101
4GG	4d	4g 4b	32ggLLL
.	.	.	32aa
.	.	.	32gg
.	.	.	32ff#JJ
.	.	.	32ggLL
.	.	.	32dd
.	.	.	32ee
.	.	.	32ff#JJJ
4r	4r	4r	32ggLLL
.	.	.	32aa
.	.	.	32bb
.	.	.	32cccJJ
.	.	.	32dddLL
.	.	.	32bb
.	.	.	32ddd
.	.	.	32bbJJJ
=102	=102	=102	=102
*	*	*^	*
4A	(4d	2a	(4f#	32gg#LLL
.	.	.	.	32aa
.	.	.	.	32bb
.	.	.	.	32aaJJ
.	.	.	.	32ggLL
.	.	.	.	32ff#
.	.	.	.	32ee
.	.	.	.	32ddJJJ
4AA	8c#L	.	8eL	32aaLLL
.	.	.	.	32gg
.	.	.	.	32ff#
.	.	.	.	32ggJJ
.	8eJ	.	8gJ)	32ff#LL
.	.	.	.	32ee
.	.	.	.	32dd
.	.	.	.	32cc#JJJ
=103	=103	=103	=103	=103
4D	4d)	4a	4f#	32ddLLL
.	.	.	.	32ee
.	.	.	.	32dd
.	.	.	.	32cc#JJ
.	.	.	.	32ddLL
.	.	.	.	32a
.	.	.	.	32b
.	.	.	.	32cc#JJJ
4r	4r	4r	4r	32ddLLL
.	.	.	.	32ee
.	.	.	.	32ff#
.	.	.	.	32ggJJ
.	.	.	.	32aaLL
.	.	.	.	32bb
.	.	.	.	32ccc#
.	.	.	.	32dddJJJ
*	*	*v	*v	*
*END	*END	*END	*END
*staff4	*staff3	*staff2	*staff1
*clefF4	*clefF4	*clefG2	*clefG2
*k[f#]	*k[f#]	*k[f#]	*k[f#]
*M2/4	*M2/4	*M2/4	*M2/4
=104	=104	=104	=104
(8GGL	2G	2d 2f 2g	32cccLLL
.	.	.	32bb
.	.	.	32ddd
.	.	.	32cccJJ
8BBJ	.	.	32eeeLL
.	.	.	32ddd
.	.	.	32fff
.	.	.	32eeeJJJ
8DL	.	.	32dddLLL
.	.	.	32ccc
.	.	.	32bb
.	.	.	32aaJJ
8BBJ)	.	.	32ggLL
.	.	.	32ff
.	.	.	32ee
.	.	.	32ffJJJ
=105	=105	=105	=105
2C	4G	4c 4e	32dd#LLL
.	.	.	32ee
.	.	.	32ff#
.	.	.	32gg#JJ
.	.	.	32aaLL
.	.	.	32bb
.	.	.	32ccc
.	.	.	32dddJJJ
.	4r	4r	32ddd#LLL
.	.	.	32eee
.	.	.	32ddd
.	.	.	32cccJJ
.	.	.	32bbLL
.	.	.	32aa
.	.	.	32bb
.	.	.	32cccJJJ
=106	=106	=106	=106
*	*^	*	*
4D	2d	(4B	(4g	32ccc#LLL
.	.	.	.	32ddd
.	.	.	.	32eee
.	.	.	.	32dddJJ
.	.	.	.	32cccLL
.	.	.	.	32bb
.	.	.	.	32aa
.	.	.	.	32ggJJJ
4DD	.	8AL	8f#L	32dddLLL
.	.	.	.	32ccc
.	.	.	.	32bb
.	.	.	.	32cccJJ
.	.	8cJ	8aJ)	32bbLL
.	.	.	.	32aa
.	.	.	.	32gg
.	.	.	.	32ff#JJJ
=107	=107	=107	=107	=107
4GG	4d	4B)	4g	32ggLLL
.	.	.	.	32aa
.	.	.	.	32bb
.	.	.	.	32cccJJ
.	.	.	.	32dddLL
.	.	.	.	32bb
.	.	.	.	32ddd
.	.	.	.	32bbJJJ
8r	8r	8r	8r	8gg
*	*v	*v	*	*
*END	*END	*END	*END
*staff4	*staff3	*staff2	*staff1
*clefF4	*clefF4	*clefG2	*clefG2
*k[f#]	*k[f#]	*k[f#]	*k[f#]
*M2/4	*M2/4	*M2/4	*M2/4
8r	8r	8r	8b
=108	=108	=108	=108
24EELL	8E 8G 8B	8e 8g 8b	8ee 8gg 8bb
24GG	.	.	.
24FF#J	.	.	.
24GGL	8r	8r	8r
24FF#	.	.	.
24EEJJ	.	.	.
24FF#LL	8F# 8A 8B	8d# 8f# 8a	8b 8dd#
24AA	.	.	.
24GGJ	.	.	.
24AAL	8r	8r	8r
24GG	.	.	.
24FF#JJ	.	.	.
=109	=109	=109	=109
24GGLL	8EL 8G 8B	8eL 8g	8bL 8ee
24BB	.	.	.
24GGJ	.	.	.
24EEL	8EJ 8G 8c	8eJ 8g 8cc	8eeJ 8gg 8ccc
24GG	.	.	.
24CJJ	.	.	.
24DDLL	8DL 8F 8B	8fL 8g 8b	8ffL 8gg 8bb
24GG	.	.	.
24BBJ	.	.	.
24BBBL	8BBJ 8D 8G	8gJ 8dd 8ff	8ggJ 8bb 8ddd 8fff
24GG	.	.	.
24BBJJ	.	.	.
=110	=110	=110	=110
24CCLL	8CL 8E 8G	8gL 8cc 8ee	8ggL 8ccc 8eee
24GG	.	.	.
24CJ	.	.	.
24GGG#L	8DJ 8E 8B	8eJ 8b	8ddJ 8ee 8bb
24EE	.	.	.
24GG#JJ	.	.	.
24AAALL	8CL 8E 8c	8eL 8cc	8eeL 8aa 8ccc
24EE	.	.	.
24AAJ	.	.	.
24CCL	8CJ 8E 8A	8eJ 8a	8ccJ 8ee 8aa
24EE	.	.	.
24AAJJ	.	.	.
=111	=111	=111	=111
*	*	*^	*
24DDLL	(4G 4B	(4g	4.d	(4b 4dd 4gg
24GG	.	.	.	.
24BBJ	.	.	.	.
24DL	.	.	.	.
24BB	.	.	.	.
24GGJJ	.	.	.	.
24DDLL	8F#L) 8A	8f#L)	.	8aL) 8dd 8ff#
24FF#	.	.	.	.
24AAJ	.	.	.	.
24DL	8F#J 8A 8d	8f#J	8r	8aJ 8dd
24AA	.	.	.	.
24FF#JJ	.	.	.	.
*	*	*v	*v	*
=112	=112	=112	=112
24DDLL	8G 8B 8d	8e 8g	8b 8ee
24GG	.	.	.
24BBJ	.	.	.
24DL	8r	8r	8r
24C#	.	.	.
24DJJ	.	.	.
24DDLL	8G 8B 8d	8g 8b	8ee 8gg 8bb 8eee
24GG	.	.	.
24BBJ	.	.	.
24DL	8r	8r	8r
24C#	.	.	.
24DJJ	.	.	.
=113	=113	=113	=113
24DDLL	4D 4F# 4A 4c	4d 4f# 4a	4cc 4dd 4ff#
24FF#	.	.	.
24AAJ	.	.	.
24CL	.	.	.
24AA	.	.	.
24GGJJ	.	.	.
24FF#LL	8r	8r	8r
24EE	.	.	.
24DDJ	.	.	.
24CCL	8F# 8A 8c	8f# 8a 8cc	8dd 8ff# 8aa
24BBB	.	.	.
24AAAJJ	.	.	.
*END	*END	*END	*END
*staff4	*staff3	*staff2	*staff1
*clefF4	*clefF4	*clefG2	*clefG2
*k[f#]	*k[f#]	*k[f#]	*k[f#]
*M2/4	*M2/4	*M2/4	*M2/4
=114	=114	=114	=114
24GGGLL	8D 8G 8B	8g 8b	8dd 8gg 8bb 8ddd
24BBB	.	.	.
24AAAJ	.	.	.
24BBBL	8r	8r	8r
24AAA	.	.	.
24GGGJJ	.	.	.
24AAALL	8D 8F# 8A 8c	8d 8f# 8a	8cc 8dd 8ff#
24CC	.	.	.
24BBBJ	.	.	.
24CCL	8r	8r	8r
24BBB	.	.	.
24AAAJJ	.	.	.
=115	=115	=115	=115
24BBBLL	8D 8G 8B	8d 8g	8b 8dd 8gg
24DD	.	.	.
24CCJ	.	.	.
24DDL	8r	8r	8r
24CC	.	.	.
24BBBJJ	.	.	.
24CCLL	8E 8G 8c	8e 8g 8cc	8ee 8gg 8ccc 8eee
24EE	.	.	.
24DDJ	.	.	.
24EEL	8r	8r	8r
24DD	.	.	.
24CCJJ	.	.	.
=116	=116	=116	=116
24DDLL	8DL 8F# 8A 8c	8f#L 8a	8ccL 8ff#
24CC	.	.	.
24DDJ	.	.	.
24EEL	8EJ 8G 8B	8gJ	8bJ 8gg
24DD	.	.	.
24EEJJ	.	.	.
24CCLL	8EL 8A 8c	8eL 8a 8cc	8eeL 8aa 8ccc
24BBB	.	.	.
24CCJ	.	.	.
24DDL	8CJ 8D 8F# 8A	8cJ 8d 8f# 8a	8ccJ 8dd 8ff# 8aa
24CC	.	.	.
24DDJJ	.	.	.
=117	=117	=117	=117
24GGGLL	8BB 8D 8G	8B 8d 8g	8b 8dd 8gg
24BBB	.	.	.
24DDJ	.	.	.
24GGL	8r	8r	8r
24DD	.	.	.
24BBBJJ	.	.	.
8GGG	4r	4r	32r
.	.	.	32bLLL
.	.	.	32cc#
.	.	.	32dd#JJ
*END	*END	*END	*END
*staff4	*staff3	*staff2	*staff1
*clefF4	*clefF4	*clefG2	*clefG2
*k[f#]	*k[f#]	*k[f#]	*k[f#]
*M2/4	*M2/4	*M2/4	*M2/4
8r	.	.	32eeLL
.	.	.	32ff#
.	.	.	32gg
.	.	.	32aaJJJ
*	*clefG2	*	*
=118	=118	=118	=118
*	*	*^	*
(4E	(4e	2b	(4g	32aa#LLL
.	.	.	.	32bb
.	.	.	.	32ccc
.	.	.	.	32bbJJ
.	.	.	.	32aaLL
.	.	.	.	32gg
.	.	.	.	32ff#
.	.	.	.	32eeJJJ
4BB)	8d#L	.	8f#L	32bbLLL
.	.	.	.	32aa
.	.	.	.	32gg#
.	.	.	.	32aaJJ
.	8f#J)	.	8aJ)	32ggLL
.	.	.	.	32ff#
.	.	.	.	32ee
.	.	.	.	32dd#JJJ
=119	=119	=119	=119	=119
(4C	(8eL	2g	8gL	32ff#LLL
.	.	.	.	32gg
.	.	.	.	32aa
.	.	.	.	32ggJJ
.	8cJ	.	8eJ	32ffLL
.	.	.	.	32ee
.	.	.	.	32dd
.	.	.	.	32ccJJJ
4GG)	8BL	.	8dL	32ggLLL
.	.	.	.	32ff
.	.	.	.	32ee
.	.	.	.	32ffJJ
.	8dJ)	.	8fJ	32eeLL
.	.	.	.	32dd
.	.	.	.	32cc
.	.	.	.	32bJJJ
=120	=120	=120	=120	=120
4C	4c	4g	4e	32dd#LLL
.	.	.	.	32ee
.	.	.	.	32dd
.	.	.	.	32ccJJ
.	.	.	.	32bLL
.	.	.	.	32a
.	.	.	.	32b
.	.	.	.	32ccJJJ
8r	8r	8r	4r	32ddLLL
.	.	.	.	32ee
.	.	.	.	32ff#
.	.	.	.	32gg#JJ
8C	8e	8a 8cc	.	32aaLL
.	.	.	.	32bb
.	.	.	.	32ccc
.	.	.	.	32aaJJJ
*	*	*v	*v	*
=121	=121	=121	=121
4.D	4.d	(4g 4b	32ggLLL
.	.	.	32aa#
.	.	.	32bb
.	.	.	32aa#JJ
.	.	.	32bbLL
.	.	.	32aa#
.	.	.	32bb
.	.	.	32ggJJJ
.	.	8f#) 8a	32ff#LLL
.	.	.	32aa
.	.	.	32gg#
.	.	.	32aaJJ
8r	8r	8r	32ggLL
.	.	.	32ff#
.	.	.	32ee
.	.	.	32ddJJJ
=122	=122	=122	=122
2DD 2D	(16GLL	2r	32dd#LLL
.	.	.	32ee
.	16A	.	32ff#
.	.	.	32eeJJ
.	16B	.	32ggLL
.	.	.	32ee
.	16cJJ	.	32aa
.	.	.	32eeJJJ
.	16dLL	.	32bbLLL
.	.	.	32ee
.	16e	.	32ccc
.	.	.	32eeJJ
.	16f#	.	32dddLL
.	.	.	32ee
.	16gJJ	.	32eee
.	.	.	32eeJJJ
=123	=123	=123	=123
2DD 2D	16aLL	4r	32dddLLL
.	.	.	32ccc
.	16g	.	32bb
.	.	.	32cccJJ
.	16f#	.	32aaLL
.	.	.	32ccc
.	16eJJ	.	32gg
.	.	.	32cccJJJ
.	16dLL	8r	32ff#LLL
.	.	.	32ccc
.	16c	.	32ee
.	.	.	32cccJJ
.	16B	8f#	32ddLL
.	.	.	32ccc
.	16AJJ	.	32cc
.	.	.	32cccJJJ
*END	*END	*END	*END
*staff4	*staff3	*staff2	*staff1
*clefF4	*clefG2	*clefG2	*clefG2
*k[f#]	*k[f#]	*k[f#]	*k[f#]
*M2/4	*M2/4	*M2/4	*M2/4
=124	=124	=124	=124
*	*	*^	*
4GG	8GL)	8g	8r	32bLLL
.	.	.	.	32dd
.	.	.	.	32gg
.	.	.	.	32bbJJ
.	(8gJ	4dd	(8b	32dddLL
.	.	.	.	32bb
.	.	.	.	32aa
.	.	.	.	32ggJJJ
(8DL	8aL	.	8ccL	32ff#LLL
.	.	.	.	32gg
.	.	.	.	32aa
.	.	.	.	32bbJJ
8CJ)	8f#J)	8dd	8aJ)	32cccLL
.	.	.	.	32aa
.	.	.	.	32gg
.	.	.	.	32ff#JJJ
*	*	*v	*v	*
=125	=125	=125	=125
(4BB	(4f	4.g	32dddLLL
.	.	.	32ccc
.	.	.	32bb
.	.	.	32aaJJ
.	.	.	32ggLL
.	.	.	32ff
.	.	.	32ee
.	.	.	32dd#JJJ
8C)	8e)	.	32eeLLL
.	.	.	32ff#
.	.	.	32gg#
.	.	.	32aaJJ
8r	8r	8r	32bbLL
.	.	.	32ccc
.	.	.	32ddd
.	.	.	32eeeJJJ
=126	=126	=126	=126
4D	4d	(4g 4b	32ccc#LLL
.	.	.	32ddd
.	.	.	32eee
.	.	.	32dddJJ
.	.	.	32cccLL
.	.	.	32bb
.	.	.	32aa
.	.	.	32ggJJJ
4DD	4d	8f#L 8a	32dddLLL
.	.	.	32ccc
.	.	.	32bb
.	.	.	32cccJJ
.	.	8aJ) 8cc	32bbLL
.	.	.	32aa
.	.	.	32gg
.	.	.	32ff#JJJ
=127	=127	=127	=127
4GG	4d	4g 4b	32ggLLL
.	.	.	32dd
.	.	.	32gg
.	.	.	32bbJJ
.	.	.	32dddLL
.	.	.	32bb
.	.	.	32ddd
.	.	.	32bbJJJ
16r	16r	16r	[16gg
*END	*END	*END	*END
*staff4	*staff3	*staff2	*staff1
*clefF4	*clefF4	*clefG2	*clefG2
*k[f#]	*k[f#]	*k[f#]	*k[f#]
*M2/4	*M2/4	*M2/4	*M2/4
8.r	16GLL	16dLL 16g 16b	16gg]
.	16G	16d 16g 16b	8r
.	16GJJ	16dJJ 16g 16b	.
=128	=128	=128	=128
2r	[4G	4d 4g 4b-	32ggLLL
.	.	.	32dd
.	.	.	32gg
.	.	.	32bb-JJ
.	.	.	32dddLL
.	.	.	32bb-
.	.	.	32ddd
.	.	.	32bb-JJJ
.	16r	16r	8gg
.	16GLL	16dLL 16g 16b-	.
.	16G	16d 16g 16b-	8r
.	16GJJ	16dJJ 16g 16b-	.
=129	=129	=129	=129
4EE-	2G	4e- 4g 4b-	2r
8GGL	.	4r	.
8BB-J	.	.	.
=130	=130	=130	=130
[2EE- [2E-	[2G [2B-	2r	4e-
.	.	.	8gL
.	.	.	8b-J
=131	=131	=131	=131
2EE-] 2E-]	2G] 2B-]	2e- 2g	8ee-L
.	.	.	8ggJ
.	.	.	(16.bb-LL
.	.	.	32aaJk
.	.	.	32ggLL
.	.	.	32ff
.	.	.	32ee-
.	.	.	32ddJJJ
=132	=132	=132	=132
2r	2e-	8r	8cc#L)
.	.	(8b-	(8cc#'J
.	.	8aL	8cc#'L
.	.	8gJ	8cc#'J)
=133	=133	=133	=133
(8DL	8d	4f#)	8dd
8CJ	4d	.	16r
.	.	.	(16dd'
8BBL	.	(8gL	16ee-'LL
.	.	.	16ee'
8AAJ)	8d	8ccJ)	16ff'
.	.	.	16ff#'JJ)
*END	*END	*END	*END
*staff4	*staff3	*staff2	*staff1
*clefF4	*clefF4	*clefG2	*clefG2
*k[f#]	*k[f#]	*k[f#]	*k[f#]
*M2/4	*M2/4	*M2/4	*M2/4
=134	=134	=134	=134
8GG	8d	8b	(8ggL
8r	8r	8r	8bbJ
8D	8d	8f# 8cc 8dd	8aaL
8r	8r	8r	8ff#J)
=135	=135	=135	=135
8G	8d	8g 8b 8dd	4.ddd
8r	8r	8r	.
4r	4r	4r	.
.	.	.	(16.bbLL
.	.	.	32ggJJk)
=136	=136	=136	=136
8A	8d	8f# 8a 8dd	8aaL
8r	8r	8r	(16.ff#L
.	.	.	32ddJJk)
8AA	8A	8g 8a 8cc#	8eeL
.	.	.	32ff#q
.	.	.	32eeq
.	.	.	32ddq
8r	8r	8r	(16.eeL
.	.	.	32ff#JJk)
=137	=137	=137	=137
8DD	8D	8f# 8a	4.dd
8r	8r	8r	.
8r	8r	8r	.
*END	*END	*END	*END
*staff4	*staff3	*staff2	*staff1
*clefF4	*clefF4	*clefG2	*clefG2
*k[f#]	*k[f#]	*k[f#]	*k[f#]
*M2/4	*M2/4	*M2/4	*M2/4
.	.	.	32eeq
.	.	.	32ddq
.	.	.	32cc#q
8r	8r	8r	(16.ddLL
.	.	.	32eeJJk)
=138	=138	=138	=138
(8GG'L	(8d'L	(8g'L 8b'	(8ff'L
8GG'J	8d'J	8g'J 8b'	8ff'J
8GG'L	8d'L	8g'L 8b'	8ff'L
8GG'J)	8d'J)	8g'J) 8b'	8ff'J)
=139	=139	=139	=139
*	*	*^	*
(4C	4c	4cc	2g	8.eeL
.	.	.	.	16ff#Jk
4BB	[4G	4dd	.	8ggL
.	.	.	.	8ggJ
*	*	*v	*v	*
=140	=140	=140	=140
4C	8GL]	(4ee	4.aa
.	8gJ	.	.
4D)	32gLLL	8ddL	.
.	32f#	.	.
.	32g	.	.
.	32f#JJ	.	.
.	.	.	32bbq
.	.	.	32aaq
.	.	.	32ggq
.	32gLL	8ccJ)	(16.aaLL
.	32f#	.	.
.	32e	.	.
.	32f#JJJ	.	32bbJJk)
=141	=141	=141	=141
4E	4g	4b	8.ggL
.	.	.	16aaJk
*END	*END	*END	*END
*staff4	*staff3	*staff2	*staff1
*clefF4	*clefG2	*clefG2	*clefG2
*k[f#]	*k[f#]	*k[f#]	*k[f#]
*M2/4	*M2/4	*M2/4	*M2/4
4r	8r	4r	8.bbL
.	32eq	.	.
.	32dq	.	.
.	32c#q	.	.
.	(16.dLL	.	.
.	.	.	16cccJk
.	32eJJk)	.	.
=142	=142	=142	=142
(8BB'L	(8f'L	16r	(8ddd'L
.	.	(16gLL	.
8BB'J	8f'J	16gg	8ddd'J
.	.	16gJJ	.
8BB'L	8f'L	16ggLL	8ddd'L
.	.	16g	.
8BB'J)	8f'J)	16gg	8ddd'J)
.	.	16gJJ)	.
=143	=143	=143	=143
4C	8.eL	(8.ggL	(8dddL
.	.	.	16cccJk)
.	16f#Jk	32ff#LL	16r
.	.	32eeJJJ	.
4G	8gL	8.ddL	(8cccL
.	8gJ	.	16bbJk)
.	.	32ccLL	16r
.	.	32bJJJ)	.
=144	=144	=144	=144
4C	4.a	2cc	(16aaLL
.	.	.	16eee
.	.	.	16ddd
.	.	.	16cccJJ
4D	.	.	16bbLL
.	.	.	16aa
.	32bq	.	.
.	32aq	.	.
.	32gq	.	.
.	(16.aLL	.	16gg
.	.	.	16ff#JJ
.	32bJJk)	.	.
=145	=145	=145	=145
[2GG	4g	(8.bL	16ggLL
.	.	.	16aa
.	.	.	16gg
.	.	16ddJk)	16ffJJ
*END	*END	*END	*END
*staff4	*staff3	*staff2	*staff1
*clefF4	*clefG2	*clefG2	*clefG2
*k[f#]	*k[f#]	*k[f#]	*k[f#]
*M2/4	*M2/4	*M2/4	*M2/4
.	8r	4f	16eeLL
.	.	.	16dd
.	(8G	.	16cc
.	.	.	16bJJ
=146	=146	=146	=146
2GG]	8cL	8e	16ccLL
.	.	.	16ee
.	8eJ	8r	16gg
.	.	.	16cccJJ
.	8dL	4r	16ffLL
.	.	.	16bb
.	8BJ)	.	16ddd
.	.	.	16fffJJ)
=147	=147	=147	=147
[2GG	4.g	(4cc	(16fffLL
.	.	.	16eee
.	.	.	16ddd#
.	.	.	16eeeJJ
.	.	8eeL	16dddLL
.	.	.	16ccc
.	(16.eLL	8ggJ)	16bb
.	.	.	16aaJJ
.	32cJJk)	.	.
*	*clefF4	*	*
=148	=148	=148	=148
4.GG_	8dL	(4gg	16aa#LL
.	.	.	16bb
.	(16.BL	.	16ddd
.	.	.	16bbJJ
.	32GJJk)	.	.
.	8AL	8ff#L	16dddLL
.	.	.	16ccc
.	32Bq	.	.
.	32Aq	.	.
.	32Gq	.	.
32GGLLK_ 32G	(16.AL	8ccJ)	16aa
16.GGJJ]	.	.	.
.	.	.	16ff#JJ
.	32BJJk)	.	.
=149	=149	=149	=149
[2GGG [2GG	(16GLL	4b	4.gg)
.	16B	.	.
.	16d	.	.
.	16cJJ	.	.
*END	*END	*END	*END
*staff4	*staff3	*staff2	*staff1
*clefF4	*clefF4	*clefG2	*clefG2
*k[f#]	*k[f#]	*k[f#]	*k[f#]
*M2/4	*M2/4	*M2/4	*M2/4
.	16BLL	4r	.
.	16A	.	.
.	16G	.	(8g
.	16FJJ	.	.
=150	=150	=150	=150
2GGG] 2GG]	16ELL	2g	8ccL
.	16G	.	.
.	16c	.	8eeJ
.	16eJJ	.	.
.	16fLL	.	8ddL
.	16d	.	.
.	16B	.	8bJ)
.	16FJJ	.	.
=151	=151	=151	=151
[2GGG [2GG	16ELL	2g	4.gg
.	16C	.	.
.	16E	.	.
.	16GJJ	.	.
.	16cLL	.	.
.	16G	.	.
.	16c	.	(16.eeLL
.	16eJJ	.	.
.	.	.	32ccJJk)
=152	=152	=152	=152
*	*	*^	*
2GGG] 2GG]	16BLL	2d	(4.d	8ddL
.	16G	.	.	.
.	16D	.	.	(16.bL
.	16BBJJ	.	.	.
.	.	.	.	32gJJk)
.	16CLL	.	.	8aL
.	16D	.	.	.
.	.	.	.	32bq
.	.	.	.	32aq
.	.	.	.	32gq
.	16F#	.	8c)	(16.aL
.	16DJJ	.	.	.
.	.	.	.	32bJJk)
*	*	*v	*v	*
=153	=153	=153	=153
8GGG 8GG	8G)	8B 8d	8g
8r	8r	8r	8r
8DL	8F#L	8cL 8d	8aL
.	.	.	32bq
.	.	.	32aq
.	.	.	32gq
8DJ	8F#J	8cJ 8d	(16.aL
.	.	.	32bJJk)
=154	=154	=154	=154
8GG	8G	8B 8d	32g'LLL
.	.	.	32a'
.	.	.	32b'
.	.	.	32cc'JJ
8r	8r	8r	32dd'LL
.	.	.	32ee'
.	.	.	32ff#'
.	.	.	32gg'JJJ
*	*clefG2	*	*
8dL	8f#L	8ccL 8dd	8aaL
.	.	.	32bbq
.	.	.	32aaq
.	.	.	32ggq
8dJ	8f#J	8ccJ 8dd	(16.aaL
.	.	.	32bbJJk)
=155	=155	=155	=155
8G	8g	8b 8dd	8gg'L
8r	8r	8r	8bb'J
8G	8g	8b 8dd	8ddd'L
8r	8r	8r	8bb'J
=156	=156	=156	=156
8G	8g	8b 8dd	8gg
8r	8r	8r	8r
4r	4r	4r	4r
==	==	==	==
*-	*-	*-	*-
